X:73
T:Eight Men of Moidart. JJo8.073
B:J.Johnson Choice Collection Vol 8 1758
Z:vmp.Simon Wilson 2013 www.village-music-project.org.uk
M:C|
L:1/8
Q:1/2=80
K:F
a|(a/g/f/e/) fcA2Fc|(A/B/c) Fc AGGa|(a/g/f/e/) fcA2Fc|(AB/c/) GC AFF:|
|:c|AFcF dFcF|AFcF (d/c/B/A/) Gc|AFcF dFcF|AB/c/ Gc AFF:|

